X:1
T:Schule fuer die Gitarre - Uebungsstuecke
T:No 8 - Allegretto
T:No 8 - Allegretto
T:Schule für die Gitarre - Übungsstücke
T:Johann Kaspar Mertz (1806-1856)
T:		
C:Johann Kaspar Mertz (1806-1856)
Z:
%%score ( 1 2 )
L:1/8
Q:1/4=116
M:2/4
K:D
V:1 treble-8 nm="Klassische Gitarre"
V:2 treble-8 
V:1
!p!"^Allegretto" (6:4:6D/A/d/f/d/A/ D!f![Adf] | [Ace]a A,!p!A | (6:4:6D/A/d/f/d/A/ D!f![Adf] | %3
 [Ace]a A,!p!A | (6:4:6D/A/d/f/d/A/ D[Adf] | [Bf]e G[Be] | [Bf]e ^G[Be] | [ce]2 a2 | %8
 (6:4:6D/A/d/f/d/A/ D!f![Adf] | [Ace]a A,A |!p! (6:4:6D/A/d/f/d/A/ D!f![Adf] | [Ace]a A,A | %12
!p! (6:4:6D/A/d/f/d/A/ D[=cf] | [Ba]g [Bf]e | ed dc | d2 D2 | (6:4:6A,/A/c/e/c/A/ A,[Ace] | %17
 [^GB]e [GBf]e | (6:4:6E,/^G/B/e/B/G/ E,e' | c'a ec | (6:4:6A,/A/c/e/c/A/ A,[Ace] | [^GB]e [GBf]e | %22
 (6:4:6E,/^G/B/e/B/G/ E,e' | a2 z2 |!p! (6:4:6D/A/d/f/d/A/ D[Adf] |!f! [Ace]a A,A | %26
!p! (6:4:6D/A/d/f/d/A/ D[Adf] | [Ace]a A,A |!p! (6:4:6D/A/d/f/d/A/ D[=cf] | [Ba]g [Bf]e | ed dc | %31
 d2 D2 |] %32
V:2
 D2 D2 | A,2 A,2 | D2 D2 | A,2 A,2 | D2 D2 | G2 G2 | ^G2 G2 | AA, a!p!A, | D2 D2 | A,2 A,2 | %10
 D2 D2 | A,2 A,2 | D2 D2 | G2 G2 | A2 A,2 | D(3A,/A/A/ D2 | A,2 A,2 | E,2 E,2 | E,2 E,2 | A,2 A,2 | %20
 A,2 A,2 | E,2 E,2 | E,2 E,2 | A,A, _BA | D2 D2 | A,2 A,2 | D2 D2 | A,2 A,2 | D2 D2 | G2 G2 | %30
 A2 A,2 | D(3A,/A/A/ D2 |] %32

